utils/icon设计资源/icons/x-diamond-fill.svg

<?xml version="1.0" encoding="UTF-8" standalone="no"?>
<svg
   xmlns:dc="http://purl.org/dc/elements/1.1/"
   xmlns:cc="http://creativecommons.org/ns#"
   xmlns:rdf="http://www.w3.org/1999/02/22-rdf-syntax-ns#"
   xmlns:svg="http://www.w3.org/2000/svg"
   xmlns="http://www.w3.org/2000/svg"
   xmlns:sodipodi="http://sodipodi.sourceforge.net/DTD/sodipodi-0.dtd"
   xmlns:inkscape="http://www.inkscape.org/namespaces/inkscape"
   inkscape:version="1.0 (4035a4fb49, 2020-05-01)"
   sodipodi:docname="x-diamond-fill.svg"
   id="svg848"
   version="1.1"
   fill="currentColor"
   class="bi bi-x-diamond-fill"
   viewBox="0 0 16 16"
   height="1em"
   width="1em">
  <metadata
     id="metadata854">
    <rdf:RDF>
      <cc:Work
         rdf:about="">
        <dc:format>image/svg+xml</dc:format>
        <dc:type
           rdf:resource="http://purl.org/dc/dcmitype/StillImage" />
      </cc:Work>
    </rdf:RDF>
  </metadata>
  <defs
     id="defs852" />
  <sodipodi:namedview
     inkscape:current-layer="svg848"
     inkscape:window-maximized="1"
     inkscape:window-y="-9"
     inkscape:window-x="-9"
     inkscape:cy="6.4578313"
     inkscape:cx="8"
     inkscape:zoom="51.875"
     showgrid="false"
     id="namedview850"
     inkscape:window-height="1001"
     inkscape:window-width="1920"
     inkscape:pageshadow="2"
     inkscape:pageopacity="0"
     guidetolerance="10"
     gridtolerance="10"
     objecttolerance="10"
     borderopacity="1"
     bordercolor="#666666"
     pagecolor="#ffffff" />
  <path
     d="M 8 0 C 7.62 3.7007434e-17 7.2392188 0.14554687 6.9492188 0.43554688 L 4.046875 3.3398438 L 8 7.2929688 L 11.953125 3.3398438 L 9.0507812 0.43554688 C 8.7607813 0.14554688 8.38 -3.7007434e-17 8 0 z M 3.3398438 4.046875 L 0.43554688 6.9511719 C -0.14445312 7.5311719 -0.14445313 8.4698281 0.43554688 9.0488281 L 3.3398438 11.953125 L 7.2929688 8 L 3.3398438 4.046875 z M 12.660156 4.046875 L 8.7070312 8 L 12.662109 11.953125 L 15.566406 9.0488281 C 16.146406 8.4688281 16.146406 7.5301719 15.566406 6.9511719 L 12.662109 4.046875 L 12.660156 4.046875 z M 8 8.7070312 L 4.046875 12.660156 L 6.9511719 15.564453 C 7.5311719 16.144453 8.4698281 16.144453 9.0488281 15.564453 L 11.953125 12.660156 L 8 8.7070312 z "
     style="fill:#000000;fill-opacity:1;fill-rule:evenodd"
     id="path846" />
</svg>

<svg width="1em" height="1em" viewBox="0 0 16 16" class="bi bi-x-diamond-fill" fill="currentColor" xmlns="http://www.w3.org/2000/svg">
  <path fill-rule="evenodd" d="M9.05.435c-.58-.58-1.52-.58-2.1 0L4.047 3.339 8 7.293l3.954-3.954L9.049.435zm3.61 3.611L8.708 8l3.954 3.954 2.904-2.905c.58-.58.58-1.519 0-2.098l-2.904-2.905zm-.706 8.615L8 8.707l-3.954 3.954 2.905 2.904c.58.58 1.519.58 2.098 0l2.905-2.904zm-8.615-.707L7.293 8 3.339 4.046.435 6.951c-.58.58-.58 1.519 0 2.098l2.904 2.905z"/>
</svg>
